assets/components_previews/data-display/light/callout.svg

<svg width="320" height="232" viewBox="0 0 320 232" fill="none" xmlns="http://www.w3.org/2000/svg">
<g filter="url(#filter0_dd_10060_19209)">
<rect x="52" y="62" width="216" height="108" rx="12" fill="white"/>
<g clip-path="url(#clip0_10060_19209)">
<path fill-rule="evenodd" clip-rule="evenodd" d="M85.3239 106.259C86.413 105.914 87.5869 105.914 88.6761 106.259C89.7608 106.602 90.6125 107.416 91.468 108.56C92.3208 109.7 93.2631 111.29 94.4777 113.339L94.5254 113.419C95.7403 115.469 96.6825 117.059 97.2698 118.348C97.8598 119.643 98.1537 120.762 97.9192 121.836C97.6831 122.918 97.1009 123.902 96.2531 124.646C95.4073 125.387 94.2556 125.7 92.8055 125.851C91.3637 126 89.4775 126 87.0499 126H86.9502C84.5225 126 82.6364 126 81.1945 125.851C79.7444 125.7 78.5927 125.387 77.7469 124.646C76.8991 123.902 76.3169 122.918 76.0808 121.836C75.8463 120.762 76.1402 119.643 76.7302 118.348C77.3175 117.059 78.2597 115.469 79.4745 113.419L79.5222 113.339C80.7369 111.29 81.6791 109.7 82.5319 108.56C83.3875 107.416 84.2392 106.602 85.3239 106.259ZM85.9767 120.878C85.9767 120.339 86.4328 119.902 86.9954 119.902H87.0046C87.5672 119.902 88.0232 120.339 88.0232 120.878C88.0232 121.417 87.5672 121.854 87.0046 121.854H86.9954C86.4328 121.854 85.9767 121.417 85.9767 120.878ZM85.9767 116.976C85.9767 117.514 86.4348 117.951 87 117.951C87.5651 117.951 88.0232 117.514 88.0232 116.976V113.073C88.0232 112.534 87.5651 112.098 87 112.098C86.4348 112.098 85.9767 112.534 85.9767 113.073V116.976Z" fill="#AA99EC"/>
</g>
<rect x="122" y="91" width="88" height="10" rx="5" fill="#EBE4FF"/>
<rect x="122" y="111" width="122" height="10" rx="5" fill="#EBE4FF"/>
<rect x="122" y="131" width="104" height="10" rx="5" fill="#EBE4FF"/>
</g>
<defs>
<filter id="filter0_dd_10060_19209" x="32" y="54" width="256" height="148" filterUnits="userSpaceOnUse" color-interpolation-filters="sRGB">
<feFlood flood-opacity="0" result="BackgroundImageFix"/>
<feColorMatrix in="SourceAlpha" type="matrix" values="0 0 0 0 0 0 0 0 0 0 0 0 0 0 0 0 0 0 127 0" result="hardAlpha"/>
<feOffset dy="12"/>
<feGaussianBlur stdDeviation="10"/>
<feComposite in2="hardAlpha" operator="out"/>
<feColorMatrix type="matrix" values="0 0 0 0 0 0 0 0 0 0 0 0 0 0 0 0 0 0 0.03 0"/>
<feBlend mode="normal" in2="BackgroundImageFix" result="effect1_dropShadow_10060_19209"/>
<feColorMatrix in="SourceAlpha" type="matrix" values="0 0 0 0 0 0 0 0 0 0 0 0 0 0 0 0 0 0 127 0" result="hardAlpha"/>
<feOffset dy="2"/>
<feGaussianBlur stdDeviation="3"/>
<feComposite in2="hardAlpha" operator="out"/>
<feColorMatrix type="matrix" values="0 0 0 0 0 0 0 0 0 0 0 0 0 0 0 0 0 0 0.05 0"/>
<feBlend mode="normal" in2="effect1_dropShadow_10060_19209" result="effect2_dropShadow_10060_19209"/>
<feBlend mode="normal" in="SourceGraphic" in2="effect2_dropShadow_10060_19209" result="shape"/>
</filter>
<clipPath id="clip0_10060_19209">
<rect width="22" height="20" fill="white" transform="translate(76 106)"/>
</clipPath>
</defs>
</svg>

<svg xmlns="http://www.w3.org/2000/svg" width="320" height="232" fill="none" viewBox="0 0 320 232"><g filter="url(#a)"><rect width="216" height="108" x="52" y="62" fill="#fff" rx="12"/><g clip-path="url(#b)"><path fill="#AA99EC" fill-rule="evenodd" d="M85.324 106.259a5.56 5.56 0 0 1 3.352 0c1.085.343 1.936 1.157 2.792 2.301.853 1.14 1.795 2.73 3.01 4.779l.047.08c1.215 2.05 2.157 3.64 2.745 4.929.59 1.295.884 2.414.65 3.488a5.22 5.22 0 0 1-1.667 2.81c-.846.741-1.997 1.054-3.448 1.205-1.441.149-3.328.149-5.755.149h-.1c-2.428 0-4.314 0-5.755-.149-1.45-.151-2.602-.464-3.448-1.205a5.22 5.22 0 0 1-1.666-2.81c-.235-1.074.06-2.193.65-3.488.587-1.289 1.529-2.879 2.744-4.929l.047-.08c1.215-2.049 2.157-3.639 3.01-4.779.856-1.144 1.707-1.958 2.792-2.301m.653 14.619c0-.539.456-.976 1.018-.976h.01c.562 0 1.018.437 1.018.976s-.456.976-1.018.976h-.01c-.562 0-1.018-.437-1.018-.976m0-3.902c0 .538.458.975 1.023.975s1.023-.437 1.023-.975v-3.903c0-.539-.458-.975-1.023-.975s-1.023.436-1.023.975z" clip-rule="evenodd"/></g><rect width="88" height="10" x="122" y="91" fill="#EBE4FF" rx="5"/><rect width="122" height="10" x="122" y="111" fill="#EBE4FF" rx="5"/><rect width="104" height="10" x="122" y="131" fill="#EBE4FF" rx="5"/></g><defs><clipPath id="b"><path fill="#fff" d="M76 106h22v20H76z"/></clipPath><filter id="a" width="256" height="148" x="32" y="54" color-interpolation-filters="sRGB" filterUnits="userSpaceOnUse"><feFlood flood-opacity="0" result="BackgroundImageFix"/><feColorMatrix in="SourceAlpha" result="hardAlpha" values="0 0 0 0 0 0 0 0 0 0 0 0 0 0 0 0 0 0 127 0"/><feOffset dy="12"/><feGaussianBlur stdDeviation="10"/><feComposite in2="hardAlpha" operator="out"/><feColorMatrix values="0 0 0 0 0 0 0 0 0 0 0 0 0 0 0 0 0 0 0.03 0"/><feBlend in2="BackgroundImageFix" result="effect1_dropShadow_10060_19209"/><feColorMatrix in="SourceAlpha" result="hardAlpha" values="0 0 0 0 0 0 0 0 0 0 0 0 0 0 0 0 0 0 127 0"/><feOffset dy="2"/><feGaussianBlur stdDeviation="3"/><feComposite in2="hardAlpha" operator="out"/><feColorMatrix values="0 0 0 0 0 0 0 0 0 0 0 0 0 0 0 0 0 0 0.05 0"/><feBlend in2="effect1_dropShadow_10060_19209" result="effect2_dropShadow_10060_19209"/><feBlend in="SourceGraphic" in2="effect2_dropShadow_10060_19209" result="shape"/></filter></defs></svg>
